images/armani.svg

<svg width="305" height="88" viewBox="0 0 305 88" fill="none" xmlns="http://www.w3.org/2000/svg">
<path fill-rule="evenodd" clip-rule="evenodd" d="M265 26.9158L263.191 26.9151V49.1663H265V50.0304H258.426V49.1663H260.238V26.9151H255.981V50.814L241.871 28.1439V49.1663H243.685V50.0304H231.881V49.1663H234.657L232.494 42.4204H225.11L222.841 49.1663H224.849V50.0304H214.137V49.1663H215.943V28.8404L208.942 50.2856L201.531 29.4609V49.1663H203.499V50.0304H196.896C195.214 50.0304 192.134 48.7169 192.134 43.8294V41.771C192.134 38.9955 190.757 37.8253 188.023 37.8253H186.15V49.1663H188.945V50.0304H173.517V49.1663H176.294L174.13 42.4204H166.749L164.481 49.1663H166.487V50.0304H161.947V49.1663H163.549L171.68 25L179.554 49.1663H183.198V26.9151H181.395V26.052H188.467C193.176 26.052 195.61 28.6446 195.61 32.0546C195.61 34.4499 194.044 36.6896 191.8 37.3987C194.381 38.1633 195.213 40.4144 195.213 43.1028V46.6125C195.213 48.2177 196.104 49.1663 197.119 49.1663H200.705V26.9151H198.898V26.052H203.586L209.905 44.2864L215.929 26.052H220.709V26.9151H218.895V49.1663H221.911L230.041 25L237.916 49.1663H241.044V26.9151H239.241V26.052H244.295L255.155 43.51V26.9151H253.345V26.052H265V26.9158ZM167.019 41.5744H173.868L170.483 31.0611L167.019 41.5744ZM188.023 36.963C190.898 36.963 192.308 34.0712 192.308 32.1877C192.308 28.7659 190.459 26.9151 187.705 26.9151H186.15V36.963H188.023ZM225.381 41.5744H232.231L228.848 31.0611L225.381 41.5744ZM141.498 25.4779C147.229 25.4779 151.467 32.4899 151.467 38.0572C151.467 44.5225 147.22 50.6053 141.498 50.6053C135.772 50.6053 131.529 44.1343 131.529 38.0572C131.529 32.496 135.446 25.4779 141.498 25.4779ZM141.497 49.7772C147.286 49.7772 147.657 41.8056 147.657 38.0572C147.657 34.3122 147.181 26.3398 141.497 26.3398C135.803 26.3398 135.371 34.3096 135.371 38.0572C135.371 41.8368 135.699 49.7772 141.497 49.7772ZM124.022 26.9143V26.0524H130.593V26.9162L128.784 26.9151V49.1666H130.593V50.0308H124.022V49.1666H125.831V26.9151L124.022 26.9143ZM103.682 49.3719C103.98 49.3719 104.405 49.3134 105.036 48.7431L105.522 49.4419C105.029 49.9171 104.533 50.2673 103.46 50.2673C101.78 50.2673 98.6981 48.9552 98.6981 44.0659V41.7706C98.6981 39.0047 97.3212 37.8249 94.5872 37.8249H92.7154V49.1685H95.508V50.0304H87.9581V49.1685H89.7626V26.9158H87.9581V26.052H95.0323C99.7393 26.052 102.176 28.6446 102.176 32.0546C102.176 34.4491 100.608 36.6904 98.3658 37.3995C100.943 38.1633 101.778 40.3874 101.778 43.1032V46.7851C101.778 48.396 102.671 49.3719 103.682 49.3719ZM94.5872 36.963C97.4624 36.963 98.8731 34.0708 98.8731 32.1877C98.8731 28.7659 97.0242 26.9158 94.2702 26.9158H92.7154V36.963H94.5872ZM77.1013 25.4779C82.8336 25.4779 87.0711 32.4899 87.0711 38.0572C87.0711 44.5225 82.8238 50.6053 77.1013 50.6053C71.3763 50.6053 67.1336 44.1343 67.1336 38.0572C67.1336 32.496 71.0487 25.4779 77.1013 25.4779ZM77.1013 49.7772C82.8904 49.7772 83.2598 41.8056 83.2598 38.0572C83.2598 34.3122 82.7859 26.3398 77.1013 26.3398C71.4076 26.3398 70.9745 34.3096 70.9745 38.0572C70.9745 41.8368 71.3035 49.7772 77.1013 49.7772ZM59.6289 26.9143V26.0524H66.2004V26.9162L64.3912 26.9151V49.1666H66.1997L66.2004 50.0308H59.6289V49.1666H61.4381V26.9151L59.6289 26.9143ZM52.2216 40.6448V39.7814H59.1102V40.6448H57.301V50.0304H56.4639C56.3871 49.1685 55.9733 48.572 55.3648 48.572C53.3899 48.572 53.1039 50.6049 49.8403 50.6049C43.8485 50.6049 40 43.3838 40 38.058C40 32.9998 43.4652 25.4787 50.2537 25.4787C52.479 25.4787 53.4504 26.7485 54.2529 26.7485C55.0623 26.7485 55.4732 26.3953 55.6061 25.5783H56.3325V33.1716H55.5955C55.075 28.4678 52.5503 26.3406 50.2694 26.3406C44.2586 26.3406 43.8408 33.9507 43.8408 38.058C43.8408 42.5656 44.3868 49.7776 49.8403 49.7776C52.7141 49.7776 54.3486 47.2386 54.3486 44.989V40.6448H52.2216ZM116.617 40.6448V39.7814H123.506V40.6448H121.696L121.698 50.0304H120.859C120.781 49.1685 120.368 48.572 119.759 48.572C117.785 48.572 117.499 50.6049 114.235 50.6049C108.244 50.6049 104.395 43.3838 104.395 38.058C104.395 32.9998 107.861 25.4787 114.65 25.4787C116.875 25.4787 117.847 26.7485 118.648 26.7485C119.457 26.7485 119.868 26.3953 120 25.5783H120.728V33.1716H119.991C119.472 28.4678 116.946 26.3406 114.665 26.3406C108.654 26.3406 108.237 33.9507 108.237 38.058C108.237 42.5656 108.781 49.7776 114.235 49.7776C117.11 49.7776 118.744 47.2386 118.744 44.989V40.6448H116.617ZM132.593 65.3316V65.3031C132.593 63.5629 131.446 62.4497 130.108 62.4497C128.797 62.4497 127.554 63.6055 127.554 65.2886V65.3171C127.554 67.0292 128.797 68.1705 130.108 68.1705C131.473 68.1705 132.593 67.1147 132.593 65.3316ZM127.595 67.5854V68.9978H126.543V58.5838H127.595V63.1063C128.168 62.2215 129.002 61.4657 130.299 61.4657C131.992 61.4657 133.672 62.8637 133.672 65.2886V65.3171C133.672 67.728 132.006 69.1549 130.299 69.1549C128.988 69.1549 128.141 68.4131 127.595 67.5854ZM142.149 64.9035C142.04 63.5629 141.303 62.393 139.896 62.393C138.667 62.393 137.738 63.4625 137.602 64.9035H142.149ZM136.537 65.3316V65.3031C136.537 63.1774 137.97 61.4657 139.923 61.4657C142.013 61.4657 143.215 63.2059 143.215 65.3601C143.215 65.503 143.215 65.5882 143.201 65.7167H137.602C137.752 67.3147 138.831 68.2131 140.087 68.2131C141.057 68.2131 141.74 67.7995 142.313 67.1717L142.969 67.7854C142.259 68.6127 141.398 69.1689 140.06 69.1689C138.121 69.1689 136.537 67.6139 136.537 65.3316ZM151.077 66.2874V65.5741C150.558 65.4171 149.862 65.2605 149.001 65.2605C147.677 65.2605 146.939 65.8597 146.939 66.7866V66.8151C146.939 67.7424 147.759 68.2846 148.715 68.2846C150.012 68.2846 151.077 67.4573 151.077 66.2874ZM145.874 66.8581V66.8296C145.874 65.2745 147.103 64.4472 148.893 64.4472C149.793 64.4472 150.435 64.5757 151.064 64.7609V64.5039C151.064 63.1774 150.286 62.4926 148.961 62.4926C148.128 62.4926 147.472 62.7207 146.816 63.0348L146.503 62.136C147.281 61.7649 148.046 61.5227 149.07 61.5227C150.067 61.5227 150.832 61.7934 151.35 62.3356C151.829 62.8352 152.074 63.5484 152.074 64.4902V68.9978H151.064V67.8854C150.572 68.5557 149.753 69.1549 148.51 69.1549C147.199 69.1549 145.874 68.3705 145.874 66.8581ZM155.568 66.2015V61.6227H156.619V65.9308C156.619 67.3003 157.329 68.1561 158.572 68.1561C159.774 68.1561 160.689 67.2292 160.689 65.8452V61.6227H161.727V68.9978H160.689V67.7139C160.211 68.5127 159.487 69.1549 158.272 69.1549C156.564 69.1549 155.568 67.9565 155.568 66.2015ZM165.821 67.0432V62.5926H164.837V61.6227H165.821V59.397H166.872V61.6227H169.112V62.5926H166.872V66.9007C166.872 67.7995 167.35 68.1279 168.06 68.1279C168.415 68.1279 168.716 68.0561 169.084 67.8709V68.8127C168.716 69.0123 168.32 69.1264 167.814 69.1264C166.681 69.1264 165.821 68.5412 165.821 67.0432ZM177.617 61.6227H178.738L175.774 69.2404C175.173 70.7665 174.49 71.3235 173.425 71.3235C172.838 71.3235 172.401 71.195 171.923 70.9525L172.278 70.0818C172.62 70.2677 172.934 70.3533 173.384 70.3533C174.013 70.3533 174.408 70.0107 174.831 68.9693L171.622 61.6227H172.783L175.351 67.7709L177.617 61.6227Z" fill="#1A1919"/>
</svg>

<svg width="255" height="35" xmlns="http://www.w3.org/2000/svg" xmlns:svg="http://www.w3.org/2000/svg" xmlns:xlink="http://www.w3.org/1999/xlink">
 <!-- Created with SVG-edit - https://github.com/SVG-Edit/svgedit-->
 <defs>
  <symbol height="88" id="svg_41" viewBox="0 0 305 88" width="305" xmlns="http://www.w3.org/2000/svg">
   <path clip-rule="evenodd" d="m265,26.92l-1.81,0l0,22.25l1.81,0l0,0.86l-6.57,0l0,-0.86l1.81,0l0,-22.25l-4.26,0l0,23.89l-14.11,-22.67l0,21.03l1.82,0l0,0.86l-11.81,0l0,-0.86l2.78,0l-2.17,-6.75l-7.38,0l-2.27,6.75l2.01,0l0,0.86l-10.71,0l0,-0.86l1.8,0l0,-20.33l-7,21.45l-7.41,-20.83l0,19.71l1.97,0l0,0.86l-6.6,0c-1.69,0 -4.77,-1.31 -4.77,-6.2l0,-2.06c0,-2.77 -1.37,-3.94 -4.11,-3.94l-1.87,0l0,11.34l2.79,0l0,0.86l-15.42,0l0,-0.86l2.77,0l-2.16,-6.75l-7.38,0l-2.27,6.75l2.01,0l0,0.86l-4.54,0l0,-0.86l1.6,0l8.13,-24.17l7.87,24.17l3.65,0l0,-22.25l-1.8,0l0,-0.87l7.07,0c4.71,0 7.14,2.59 7.14,6c0,2.4 -1.57,4.64 -3.81,5.35c2.58,0.76 3.41,3.01 3.41,5.7l0,3.51c0,1.61 0.89,2.56 1.91,2.56l3.59,0l0,-22.25l-1.81,0l0,-0.87l4.69,0l6.32,18.24l6.02,-18.24l4.78,0l0,0.87l-1.81,0l0,22.25l3.01,0l8.13,-24.17l7.88,24.17l3.12,0l0,-22.25l-1.8,0l0,-0.87l5.05,0l10.87,17.46l0,-16.59l-1.82,0l0,-0.87l11.66,0l0,0.87zm-97.98,14.65l6.85,0l-3.39,-10.51l-3.46,10.51zm21,-4.61c2.88,0 4.29,-2.89 4.29,-4.77c0,-3.42 -1.85,-5.27 -4.6,-5.27l-1.56,0l0,10.04l1.87,0zm37.36,4.61l6.85,0l-3.38,-10.51l-3.47,10.51zm-83.88,-16.09c5.73,0 9.97,7.01 9.97,12.58c0,6.46 -4.25,12.55 -9.97,12.55c-5.73,0 -9.97,-6.48 -9.97,-12.55c0,-5.56 3.92,-12.58 9.97,-12.58zm0,24.3c5.79,0 6.16,-7.97 6.16,-11.72c0,-3.75 -0.48,-11.72 -6.16,-11.72c-5.7,0 -6.13,7.97 -6.13,11.72c0,3.78 0.33,11.72 6.13,11.72zm-17.48,-22.87l0,-0.86l6.57,0l0,0.87l-1.81,0l0,22.25l1.81,0l0,0.86l-6.57,0l0,-0.86l1.81,0l0,-22.25l-1.81,-0.01zm-20.34,22.46c0.3,0 0.73,-0.06 1.36,-0.63l0.48,0.7c-0.49,0.48 -0.99,0.83 -2.06,0.83c-1.68,0 -4.76,-1.31 -4.76,-6.2l0,-2.3c0,-2.77 -1.38,-3.95 -4.11,-3.95l-1.87,0l0,11.35l2.79,0l0,0.86l-7.55,0l0,-0.86l1.8,0l0,-22.25l-1.8,0l0,-0.87l7.07,0c4.71,0 7.15,2.59 7.15,6c0,2.4 -1.57,4.64 -3.81,5.35c2.57,0.76 3.41,2.99 3.41,5.7l0,3.69c0,1.61 0.89,2.58 1.9,2.58zm-9.09,-12.41c2.87,0 4.28,-2.89 4.28,-4.77c0,-3.42 -1.85,-5.27 -4.6,-5.27l-1.55,0l0,10.04l1.87,0zm-17.49,-11.48c5.73,0 9.97,7.01 9.97,12.58c0,6.46 -4.25,12.55 -9.97,12.55c-5.72,0 -9.97,-6.48 -9.97,-12.55c0,-5.56 3.92,-12.58 9.97,-12.58zm0,24.3c5.79,0 6.16,-7.97 6.16,-11.72c0,-3.75 -0.47,-11.72 -6.16,-11.72c-5.69,0 -6.13,7.97 -6.13,11.72c0,3.78 0.33,11.72 6.13,11.72zm-17.47,-22.87l0,-0.86l6.57,0l0,0.87l-1.81,0l0,22.25l1.81,0l0,0.86l-6.57,0l0,-0.86l1.81,0l0,-22.25l-1.81,-0.01zm-7.41,13.73l0,-0.86l6.89,0l0,0.86l-1.81,0l0,9.39l-0.84,0c-0.07,-0.86 -0.49,-1.46 -1.1,-1.46c-1.97,0 -2.26,2.03 -5.52,2.03c-5.99,0 -9.84,-7.22 -9.84,-12.54c0,-5.06 3.47,-12.58 10.25,-12.58c2.23,0 3.2,1.27 4,1.27c0.81,0 1.22,-0.35 1.36,-1.17l0.72,0l0,7.59l-0.73,0c-0.52,-4.7 -3.05,-6.83 -5.33,-6.83c-6.01,0 -6.43,7.61 -6.43,11.72c0,4.51 0.55,11.72 6,11.72c2.87,0 4.51,-2.54 4.51,-4.79l0,-4.35l-2.13,0zm64.4,0l0,-0.86l6.89,0l0,0.86l-1.81,0l0,9.39l-0.84,0c-0.08,-0.86 -0.49,-1.46 -1.1,-1.46c-1.98,0 -2.26,2.03 -5.53,2.03c-5.99,0 -9.84,-7.22 -9.84,-12.54c0,-5.06 3.47,-12.58 10.26,-12.58c2.23,0 3.2,1.27 4,1.27c0.81,0 1.22,-0.35 1.35,-1.17l0.73,0l0,7.59l-0.74,0c-0.52,-4.7 -3.04,-6.83 -5.32,-6.83c-6.02,0 -6.43,7.61 -6.43,11.72c0,4.51 0.54,11.72 5.99,11.72c2.88,0 4.51,-2.54 4.51,-4.79l0,-4.35l-2.12,0zm15.97,24.69l0,-0.03c0,-1.74 -1.14,-2.85 -2.48,-2.85c-1.31,0 -2.56,1.16 -2.56,2.84l0,0.03c0,1.71 1.25,2.85 2.56,2.85c1.36,0 2.48,-1.06 2.48,-2.84zm-5,2.26l0,1.41l-1.05,0l0,-10.42l1.05,0l0,4.53c0.58,-0.89 1.41,-1.64 2.71,-1.64c1.69,0 3.37,1.39 3.37,3.82l0,0.03c0,2.41 -1.66,3.83 -3.37,3.83c-1.31,0 -2.16,-0.74 -2.71,-1.56zm14.56,-2.69c-0.11,-1.34 -0.85,-2.51 -2.25,-2.51c-1.23,0 -2.16,1.07 -2.3,2.51l4.55,0zm-5.61,0.43l0,-0.03c0,-2.12 1.43,-3.83 3.38,-3.83c2.09,0 3.3,1.74 3.3,3.89c0,0.14 0,0.23 -0.02,0.36l-5.6,0c0.15,1.59 1.23,2.49 2.49,2.49c0.97,0 1.65,-0.41 2.22,-1.04l0.66,0.62c-0.71,0.82 -1.57,1.38 -2.91,1.38c-1.94,0 -3.52,-1.56 -3.52,-3.84zm14.54,0.96l0,-0.72c-0.52,-0.15 -1.22,-0.31 -2.08,-0.31c-1.32,0 -2.06,0.6 -2.06,1.53l0,0.03c0,0.92 0.82,1.46 1.78,1.46c1.29,0 2.36,-0.82 2.36,-1.99zm-5.21,0.57l0,-0.03c0,-1.56 1.23,-2.38 3.02,-2.38c0.9,0 1.55,0.13 2.17,0.31l0,-0.26c0,-1.32 -0.77,-2.01 -2.1,-2.01c-0.83,0 -1.49,0.23 -2.14,0.54l-0.32,-0.89c0.78,-0.38 1.55,-0.62 2.57,-0.62c1,0 1.76,0.27 2.28,0.82c0.48,0.5 0.72,1.21 0.72,2.15l0,4.51l-1.01,0l0,-1.11c-0.49,0.67 -1.31,1.26 -2.55,1.26c-1.31,0 -2.64,-0.78 -2.64,-2.29zm9.7,-0.66l0,-4.58l1.05,0l0,4.31c0,1.37 0.71,2.23 1.95,2.23c1.2,0 2.12,-0.93 2.12,-2.31l0,-4.23l1.04,0l0,7.38l-1.04,0l0,-1.29c-0.48,0.8 -1.2,1.44 -2.42,1.44c-1.71,0 -2.7,-1.19 -2.7,-2.95zm10.25,0.84l0,-4.45l-0.98,0l0,-0.97l0.98,0l0,-2.22l1.05,0l0,2.22l2.24,0l0,0.97l-2.24,0l0,4.31c0,0.9 0.48,1.23 1.19,1.23c0.35,0 0.66,-0.07 1.02,-0.26l0,0.94c-0.36,0.2 -0.76,0.32 -1.27,0.32c-1.13,0 -1.99,-0.59 -1.99,-2.09zm11.8,-5.42l1.12,0l-2.97,7.62c-0.6,1.53 -1.28,2.08 -2.34,2.08c-0.59,0 -1.03,-0.13 -1.51,-0.37l0.36,-0.87c0.34,0.19 0.65,0.27 1.1,0.27c0.63,0 1.03,-0.34 1.45,-1.38l-3.21,-7.35l1.16,0l2.57,6.15l2.27,-6.15z" fill="#1A1919" fill-rule="evenodd" id="svg_1"/>
  </symbol>
 </defs>
 <g class="layer">
  <title>Layer 1</title>
  <use id="svg_42" transform="matrix(1.10081 0 0 1.10081 -23.0506 -7.78442)" x="-17.25" xlink:href="#svg_41" y="-14.14"/>
 </g>
</svg>
